X:7
T:Lullabye
C:Taken down from recollection of singing of Anne Bickle, Bratton Clovelly, circ. 1840.
%%VWML:SBG-1-1-251-0
F:http://www.vwml.org/record/SBG/1/1/251
Z:Original Sibleius Transcription by Martin and Shan Graebe
M:3/8
L:1/16
K:Bb
B4 cd | B6 | F4 GA | B6 | e4 dc |d6 | A4 GF | F6 | d4 ed |c6 |
c4 Bc | d6 | B4 cd |G6 | A4 GF | B6 | B4 cd |G6 | A4 GA | B6 ||


